X:14
T:Wise Maid, The
T:Around The World
M:C|
R:Reel
Z:Lark camp handout
K:D
F2FG FEDE|FAAB AFED|d2 (3efg fdec|dBAF BEE2|\
F2FG FEDE|FAAB AFED|d2 (3efg fdec|1 dBAF FDDE:|2 dBAG FDFA||\
d2 AG FDFA|dfaf gfeg|fAdf eAce|dfed cAA2|\
B2GB ADFA|dfaf gfed|(3Bcd ce dBAG|1 FAEF D3A:|2 FAEF D4||
